X:1
T:Title
L:1/8
Q:1/4=180
M:6/4
K:Db
V:1 treble nm="Church Organ, Staff"
V:1
 d2 c4 A2 B4 | F2 G4 A2 F4 | G2 A4 B2 c4 | d2 A4- A2 A4 | d2 c4 A2 B4 | d2 c4 A2 B4 | %6
w: By~T.~Tertius~Noble * * *||||||
 f2 e4 c2 d3 c | B2 A4- A2 A4 | A2 e4 e2 d4 | A2 c4 c2 B4 | F2 A4 A2 c4 | c2 f4- f2 f4 | %12
w: ||||||
 B2 e4 e2 A4 | A2 d4 d2 G4 | B2 A4 B2 A4 | B2 A4- A2 A4 | d2 c4 A2 B4 | F2 G4 A2 F4 | A2 f4 d2 f4 | %19
w: |||||||
 d2 A4 A2 d4 |] %20
w: |

